packages/merlin-www-assets/imports/traveller/icons/gallery-list.svg

<svg viewBox="0 0 20 20" xmlns="http://www.w3.org/2000/svg"><path d="m3 3h-3v-3h3zm17-2h-14v1h14zm-17 7.5h-3v3h3zm17 1h-14v1h14zm-17 7.5h-3v3h3zm17 1h-14v1h14z"/></svg>

<svg id="gallery-list" xmlns="http://www.w3.org/2000/svg" viewBox="0 0 20 20"><path d="M3 3H0V0h3v3zm17-2H6v1h14V1zM3 8.5H0v3h3v-3zm17 1H6v1h14v-1zM3 17H0v3h3v-3zm17 1H6v1h14v-1z"/></svg>
